assets/Snowflake/Flat/snowflake_flat.svg

<svg width="32" height="32" viewBox="0 0 32 32" fill="none" xmlns="http://www.w3.org/2000/svg">
<path d="M23.5638 18.9L28.6756 17.54C29.229 17.39 29.8126 17.69 29.9636 18.25C30.1145 18.81 29.7824 19.37 29.229 19.52L26.1197 20.35L28.3435 21.62C28.8265 21.9 28.9976 22.51 28.7158 22.99C28.4341 23.47 27.8203 23.64 27.3373 23.36L25.1135 22.09L25.9486 25.18C26.0996 25.74 25.7776 26.3 25.2141 26.45C24.6506 26.6 24.0871 26.27 23.9361 25.72L22.5677 20.64L20.2533 19.31C19.5389 20.1 18.593 20.68 17.5062 20.9V23.53L21.2495 27.25C21.652 27.65 21.652 28.31 21.2495 28.71C20.847 29.11 20.1829 29.11 19.7804 28.71L17.5062 26.45V29C17.5062 29.55 17.0534 30 16.5 30C15.9466 30 15.4938 29.55 15.4938 29V26.46L13.2196 28.72C12.8171 29.12 12.153 29.12 11.7505 28.72C11.348 28.32 11.348 27.66 11.7505 27.26L15.4938 23.54V20.91C14.3969 20.69 13.4611 20.11 12.7467 19.32L10.4424 20.64L9.07391 25.72C8.92298 26.27 8.34942 26.6 7.79598 26.45C7.24255 26.3 6.91049 25.73 7.06142 25.18L7.89661 22.09L5.6728 23.37C5.18981 23.64 4.576 23.48 4.29425 23C4.0125 22.52 4.18356 21.91 4.6565 21.65L6.8803 20.37L3.771 19.54C3.21757 19.39 2.88551 18.82 3.03644 18.27C3.18738 17.72 3.76094 17.39 4.31437 17.54L9.4261 18.9L11.7405 17.57C11.5694 17.08 11.4587 16.55 11.4587 16C11.4587 15.45 11.5694 14.92 11.7405 14.45L9.4261 13.12L4.31437 14.48C3.75088 14.63 3.18738 14.3 3.03644 13.75C2.88551 13.19 3.21757 12.63 3.771 12.48L6.8803 11.65L4.6565 10.37C4.18356 10.09 4.0125 9.48 4.29425 9C4.56594 8.52 5.18981 8.36 5.66274 8.63L7.89661 9.91L7.06142 6.82C6.91049 6.27 7.24255 5.71 7.79598 5.56C8.34942 5.41 8.91291 5.74 9.06385 6.29L10.4323 11.37L12.7366 12.69C13.4511 11.9 14.3969 11.32 15.4837 11.1V8.47L11.7405 4.75C11.338 4.35 11.338 3.69 11.7405 3.29C12.143 2.89 12.8071 2.89 13.2096 3.29L15.4837 5.55V3C15.4837 2.45 15.9365 2 16.4899 2C17.0434 2 17.4962 2.45 17.4962 3V5.55L19.7703 3.29C20.1728 2.89 20.8369 2.89 21.2394 3.29C21.6419 3.69 21.6419 4.35 21.2394 4.75L17.4962 8.47V11.1C18.5829 11.32 19.5288 11.9 20.2332 12.68L22.5475 11.35L23.916 6.27C24.067 5.72 24.6405 5.39 25.194 5.54C25.7474 5.69 26.0795 6.26 25.9285 6.81L25.0933 9.9L27.3171 8.63C27.8001 8.36 28.4139 8.52 28.6957 9C28.9674 9.48 28.8064 10.09 28.3334 10.36L26.1096 11.63L29.2189 12.46C29.7724 12.61 30.1044 13.18 29.9535 13.73C29.8026 14.28 29.229 14.61 28.6756 14.46L23.5638 13.1L21.2495 14.43C21.4205 14.92 21.5312 15.45 21.5312 16C21.5312 16.55 21.4205 17.07 21.2495 17.57L23.5638 18.9ZM19.5087 16C19.5087 14.3431 18.1572 13 16.49 13C14.8228 13 13.4712 14.3431 13.4712 16C13.4712 17.6569 14.8228 19 16.49 19C18.1572 19 19.5087 17.6569 19.5087 16Z" fill="#00A6ED"/>
</svg>

<svg xmlns="http://www.w3.org/2000/svg" width="32" height="32" fill="none"><path fill="#00A6ED" d="m23.564 18.9 5.112-1.36c.553-.15 1.137.15 1.288.71.15.56-.182 1.12-.735 1.27l-3.11.83 2.224 1.27c.483.28.655.89.373 1.37-.282.48-.896.65-1.379.37l-2.224-1.27.836 3.09c.15.56-.171 1.12-.735 1.27a1.041 1.041 0 0 1-1.278-.73l-1.368-5.08-2.315-1.33a5.067 5.067 0 0 1-2.747 1.59v2.63l3.744 3.72c.402.4.402 1.06 0 1.46-.403.4-1.067.4-1.47 0l-2.274-2.26V29a1.006 1.006 0 0 1-2.012 0v-2.54l-2.274 2.26c-.403.4-1.067.4-1.47 0a1.034 1.034 0 0 1 0-1.46l3.744-3.72v-2.63c-1.097-.22-2.033-.8-2.747-1.59l-2.305 1.32-1.368 5.08c-.151.55-.725.88-1.278.73a1.038 1.038 0 0 1-.735-1.27l.836-3.09-2.224 1.28A1.02 1.02 0 0 1 4.294 23a.976.976 0 0 1 .363-1.35l2.223-1.28-3.109-.83a1.038 1.038 0 0 1-.735-1.27c.151-.55.725-.88 1.278-.73l5.112 1.36 2.315-1.33a4.77 4.77 0 0 1-.282-1.57c0-.55.11-1.08.282-1.55l-2.315-1.33-5.112 1.36a1.041 1.041 0 0 1-1.278-.73c-.15-.56.182-1.12.735-1.27l3.11-.83-2.224-1.28A1.004 1.004 0 0 1 4.293 9c.272-.48.896-.64 1.369-.37l2.234 1.28-.836-3.09c-.15-.55.182-1.11.735-1.26.553-.15 1.117.18 1.268.73l1.368 5.08 2.305 1.32a5.067 5.067 0 0 1 2.747-1.59V8.47L11.74 4.75a1.034 1.034 0 0 1 0-1.46 1.05 1.05 0 0 1 1.469 0l2.274 2.26V3a1.006 1.006 0 0 1 2.012 0v2.55l2.274-2.26a1.05 1.05 0 0 1 1.47 0c.402.4.402 1.06 0 1.46l-3.744 3.72v2.63a5.05 5.05 0 0 1 2.737 1.58l2.314-1.33 1.369-5.08c.151-.55.724-.88 1.278-.73.553.15.886.72.735 1.27l-.836 3.09 2.224-1.27a1.02 1.02 0 0 1 1.379.37.998.998 0 0 1-.363 1.36l-2.223 1.27 3.109.83c.553.15.885.72.734 1.27-.15.55-.724.88-1.277.73l-5.112-1.36-2.314 1.33c.17.49.281 1.02.281 1.57s-.11 1.07-.281 1.57l2.314 1.33ZM19.509 16c0-1.657-1.352-3-3.019-3a3.01 3.01 0 0 0-3.019 3c0 1.657 1.352 3 3.019 3a3.01 3.01 0 0 0 3.019-3Z"/></svg>
